!!!OTL: Arm an ellen (285), S. 599
!!!id: T0475
**kern
*clefG2
*k[b-]
*F:
{16f
=1
16f
8cc
8a
8f
8f
=2
8a
8a
4g}
=3
{8b-
8b-
8g
16g
16g
=4
8dd
8dd
4cc}
=5
{8cc
8a
8f
8f
=6
8a
8a
4g}
=7
{8b-
8g
8e
8e
=8
8f
8f
4f}
==
*-
!!!minrhy: 16
!!!meters: 2/4 ]  ZZ[4
!!!cut: Arm an ellen (285), S. 599
!!!reg: Luxemburg
!!!trd: Singendes Volk, Esch-Alzette, 1937 posth.
!!!rhy1:   X_X_X_X_  X_X_X__
!!!rhy2: X_X_X_XX  X_X_X__
!!!key: T0475  16  F 2/4 ]  ZZ[4
!!!mod: HEPTATONIK IONISCH]  AMBITUS[7b
!!!kad: 2521
!!!akz: 53_46_53_41_
!!!fot: 'a__b__a__as"
!!!for: 'a__b__a__a__
!!!fok: '\__Va_\__\__
!! PHRAS[VOLLTAKTIG]
!!!fkt: ???
!!!bem: Junglinster, fff Josephine Welter, um 1896?
!! THILL; Mathias
!! PR[37] 2K[7] 2G[13] 3K[0] 3G[0] 4A[7] 4Ü[0] 5A[0] 6K[0] 6G[0]
!! 7K[0] 7G[0] 8A[0] MEHR[0] SI[27] ABS[30] SR[20] SP[7]
!! ST[6] 2k[13] 2g[20] 3k[0] 3g[3] 4d[0] 4ü[0] 5d[0] 6k[0] 6g[0]
!! 7k[0] 7g[0] 8d[0] mehr[0] si[37] dm[-10] sr[33] sp[3]
!! 1F[13] 2F[47] 3F[28] 4F[3] LF[0] 2P[0] 3P[9] 4P[0] TRI[0] DF[5] AB[32]
!! TF[0] U3K[0] U3[0] U4[0] U4Ü[0] U5[0] U6K[0] U6[0] U7K[0] U7[0]
!! N1[3] N2K[0] N2[6] N3K[0] N3[13] N4[10] N4Ü[0] N5[13] N6K[0] N6[26]
!!!n7k: 0] N7[16] O1[13] O2K[0] O2[0] O3K[0] O3[0] HÖ[0
